X:17735
T:Tricotada
R:Bourree
C:trad.
A:Massif Central
O:France
M:3/8
L:1/16
Q:1/4=105
K:C
e2g2f2|e4d2|cdedef|efedc2|e2g2f2|c4d2|cdedef|g6|
e2g2f2|e4d2|cdedef|efedc2|e2g2f2|c4d2|cde2d2|c4ed|
|:c2B2c2|d4d2|cdedef|e2d2c2|c2B2c2|d4d2|cde2d2|c6:||
% Output from ABC2Win  Version 2.1 i on 25/02/2000
